X:327
T: Promenade (The)
N: O'Farrell's Pocket Companion v.4 (Sky ed. p.144)
M: C
R: march
L: 1/8
Q: 200
K: G
D| G>AGA cBAG| B>cBc edcB| gbdg egAc| BdEA GFED|
GAGA cBAG| BcBc edcB| bg d/g/b/g/ afAc| BAGF G3 :|
g| bgef/g/ afd>f| gfed dcBA| a2 g/f/e/d/ ag/a/ ba/g/|
f/e/f/g/ a/g/f/e/ d3 G/B/| .d.d.d.d .c.c.c.c| BBdG GFED|
G>AGA B>cBc| edcB B2 A>g| bg d/g/b/g/ af d/f/a/f/|
gfea gfed| efga ba/g/ c'b/a/| g2 dB G3 ||
